icons/numix/22x22/status/dropboxstatus-busy.svg

<?xml version="1.0" encoding="UTF-8" standalone="no"?>
<svg
   xmlns:dc="http://purl.org/dc/elements/1.1/"
   xmlns:cc="http://creativecommons.org/ns#"
   xmlns:rdf="http://www.w3.org/1999/02/22-rdf-syntax-ns#"
   xmlns:svg="http://www.w3.org/2000/svg"
   xmlns="http://www.w3.org/2000/svg"
   xmlns:sodipodi="http://sodipodi.sourceforge.net/DTD/sodipodi-0.dtd"
   xmlns:inkscape="http://www.inkscape.org/namespaces/inkscape"
   width="22"
   viewBox="0 0 22 22"
   height="22"
   id="svg2989"
   version="1.1"
   inkscape:version="0.48.5 r10040"
   sodipodi:docname="dropboxstatus-busy.svg">
  <metadata
     id="metadata3007">
    <rdf:RDF>
      <cc:Work
         rdf:about="">
        <dc:format>image/svg+xml</dc:format>
        <dc:type
           rdf:resource="http://purl.org/dc/dcmitype/StillImage" />
      </cc:Work>
    </rdf:RDF>
  </metadata>
  <defs
     id="defs3005" />
  <sodipodi:namedview
     pagecolor="#ffffff"
     bordercolor="#666666"
     borderopacity="1"
     objecttolerance="10"
     gridtolerance="10"
     guidetolerance="10"
     inkscape:pageopacity="0"
     inkscape:pageshadow="2"
     inkscape:window-width="640"
     inkscape:window-height="480"
     id="namedview3003"
     showgrid="false"
     inkscape:zoom="15.170655"
     inkscape:cx="11.491408"
     inkscape:cy="11.138832"
     inkscape:window-x="0"
     inkscape:window-y="0"
     inkscape:window-maximized="0"
     inkscape:current-layer="svg2989" />
  <path
     inkscape:connector-curvature="0"
     id="path2995"
     d="M 6.5,3.5 2,7 6.5,10 2,14 11,20 20,14 15.5,10 20,7 15.5,3.5 11,7 6.5,3.5 z m 2.3125,4.5 2.875,0.75 -1.53125,2.5625 -0.40625,-1 C 8.6770484,10.790579 8,11.832787 8,13 c 0,1.209574 0.7577739,2.314671 1.90625,2.75 L 9.375,17.125 C 7.6530351,16.471839 6.5,14.814124 6.5,13 6.5,11.226042 7.5719421,9.641272 9.21875,8.9375 L 8.8125,8 z m 3.84375,0.875 C 14.377112,9.5492445 15.5,11.179154 15.5,13 c 0,1.761402 -1.078248,3.372173 -2.71875,4.0625 L 13.125,18 l -2.75,-0.78125 1.46875,-2.53125 0.375,1 C 13.284858,15.215921 14,14.15663 14,13 14,11.785705 13.272346,10.699858 12.125,10.25 l 0.53125,-1.375 z"
     style="color:#000000;fill:#ececec;fill-opacity:1" />
</svg>

<svg width="22" xmlns="http://www.w3.org/2000/svg" viewBox="0 0 22 22" height="22">
<g style="color:#000">
<path style="opacity:.3" d="M 6.5,4.5 2,8 6.5,11 2,15 11,21 20,15 15.5,11 20,8 15.5,4.5 11,8 6.5,4.5 z m 2.3125,4.5 2.875,0.75 -1.53125,2.5625 -0.40625,-1 C 8.6770484,11.790579 8,12.832787 8,14 c 0,1.209574 0.7577739,2.314671 1.90625,2.75 L 9.375,18.125 C 7.6530351,17.471839 6.5,15.814124 6.5,14 6.5,12.226042 7.5719421,10.641272 9.21875,9.9375 L 8.8125,9 z m 3.84375,0.875 C 14.377112,10.549245 15.5,12.179154 15.5,14 c 0,1.761402 -1.078248,3.372173 -2.71875,4.0625 L 13.125,19 l -2.75,-0.78125 1.46875,-2.53125 0.375,1 C 13.284858,16.215921 14,15.15663 14,14 14,12.785705 13.272346,11.699858 12.125,11.25 l 0.53125,-1.375 z"/>
<path style="fill:#dedede" d="M 6.5 3.5 L 2 7 L 6.5 10 L 2 14 L 11 20 L 20 14 L 15.5 10 L 20 7 L 15.5 3.5 L 11 7 L 6.5 3.5 z M 8.8125 8 L 11.6875 8.75 L 10.15625 11.3125 L 9.75 10.3125 C 8.6770484 10.790579 8 11.832787 8 13 C 8 14.209574 8.7577739 15.314671 9.90625 15.75 L 9.375 17.125 C 7.6530351 16.471839 6.5 14.814124 6.5 13 C 6.5 11.226042 7.5719421 9.641272 9.21875 8.9375 L 8.8125 8 z M 12.65625 8.875 C 14.377112 9.5492445 15.5 11.179154 15.5 13 C 15.5 14.761402 14.421752 16.372173 12.78125 17.0625 L 13.125 18 L 10.375 17.21875 L 11.84375 14.6875 L 12.21875 15.6875 C 13.284858 15.215921 14 14.15663 14 13 C 14 11.785705 13.272346 10.699858 12.125 10.25 L 12.65625 8.875 z "/>
</g>
<g style="fill:#bebebe" transform="matrix(0 -.02778 .02828 0 32.3269 19.58951)">
<path d="M 383.434,172.502 C 358.098,114.261 301.436,76.854 237.573,76.854 c -65.309,0 -125,40.928 -148.514,101.827 l 49.5,19.117 c 15.672,-40.617 55.469,-67.894 99.014,-67.894 42.02,0 79.197,24.386 96.408,62.332 l -36.117,14.428 92.352,53.279 27.01,-100.933 -33.792,13.492 z"/>
<path d="m 237.573,342.101 c -41.639,0 -79.615,-25.115 -96.592,-62.819 L 176.585,265.519 85.198,213.4 57.223,311.649 91.303,298.477 c 24.852,58.018 82.859,96.671 146.27,96.671 65.551,0 123.598,-39.336 147.871,-100.196 L 336.176,275.3 c -16.195,40.577 -54.888,66.801 -98.603,66.801 z"/>
</g>
</svg>
